packages/foundations/assets/icons/functional/images/arrows/arrow_right_16.svg

<svg width="16" height="16" viewBox="0 0 16 16" fill="none" xmlns="http://www.w3.org/2000/svg">
<g clip-path="url(#clip0_77_482)">
<path fill-rule="evenodd" clip-rule="evenodd" d="M13.35 8.54996C13.4295 8.48232 13.4932 8.39795 13.5364 8.30288C13.5796 8.20781 13.6013 8.10438 13.6 7.99996C13.6 7.79996 13.525 7.59997 13.35 7.42496L9.37496 3.42496C9.21909 3.27925 9.01334 3.19874 8.79996 3.19996C8.34996 3.19996 7.99996 3.54996 7.99996 3.99996C7.99996 4.19996 8.07496 4.39997 8.22496 4.54997L10.875 7.19996H3.19996C2.74996 7.19996 2.39996 7.54996 2.39996 7.99996C2.39996 8.42496 2.74996 8.79996 3.19996 8.79996H10.875L8.22496 11.425C8.08306 11.5832 8.00314 11.7874 7.99996 12C7.99996 12.425 8.34996 12.8 8.79996 12.8C8.90807 12.8016 9.01529 12.7801 9.11445 12.737C9.2136 12.6939 9.30242 12.6301 9.37496 12.55L13.35 8.54996Z" fill="#1A1C1F"/>
</g>
<defs>
<clipPath id="clip0_77_482">
<rect width="16" height="16" fill="white"/>
</clipPath>
</defs>
</svg>

<svg xmlns="http://www.w3.org/2000/svg" width="16" height="16" fill="none"><g clip-path="url(#a)"><path fill="#1A1C1F" fill-rule="evenodd" d="M13.35 8.55A.71.71 0 0 0 13.6 8c0-.2-.075-.4-.25-.575l-3.975-4A.84.84 0 0 0 8.8 3.2c-.45 0-.8.35-.8.8 0 .2.075.4.225.55l2.65 2.65H3.2c-.45 0-.8.35-.8.8 0 .425.35.8.8.8h7.675l-2.65 2.625A.88.88 0 0 0 8 12a.806.806 0 0 0 1.114.737.8.8 0 0 0 .261-.187z" clip-rule="evenodd"/></g><defs><clipPath id="a"><path fill="#fff" d="M0 0h16v16H0z"/></clipPath></defs></svg>
